static/headset.svg

<svg width="110" height="108" viewBox="0 0 110 108" fill="none" xmlns="http://www.w3.org/2000/svg">
<path d="M85.0352 32.2577C85.5293 33.2675 86.7754 33.6972 87.7852 33.1815C88.7949 32.6874 89.2246 31.4413 88.709 30.4315C82.5645 17.9921 69.3516 9.93545 55.0215 9.93545C35.1699 9.93545 18.8848 24.953 17.8105 43.8163C15.5977 44.0097 13.4707 44.5468 11.5371 45.4276C11.8379 40.121 13.1055 35.0077 15.2969 30.1737C15.7695 29.1425 15.2969 27.9179 14.2656 27.4452C13.2344 26.9726 12.0098 27.4452 11.5371 28.4765C8.76562 34.621 7.34766 41.1952 7.34766 47.9843C2.92188 51.5292 0.0644531 56.9862 0.0644531 63.0878C0.0644531 73.7655 8.74414 82.4452 19.4219 82.4452H23.1816C24.3203 82.4452 25.2441 81.5214 25.2441 80.3827V73.5077C25.2441 72.369 24.3203 71.4452 23.1816 71.4452C22.043 71.4452 21.1191 72.369 21.1191 73.5077V78.3202H19.4004C11 78.3202 4.16797 71.4882 4.16797 63.0878C4.16797 54.6874 11 47.8554 19.4004 47.8554H21.1191V65.3007C21.1191 66.4394 22.043 67.3632 23.1816 67.3632C24.3203 67.3632 25.2441 66.4394 25.2441 65.3007V45.7929C25.2441 44.6542 24.3203 43.7304 23.1816 43.7304H21.9355C23.0527 27.1659 37.4473 14.039 55.0215 14.039C67.8047 14.0604 79.5781 21.1933 85.0352 32.2577Z" fill="#1D4283"/>
<path d="M102.223 47.6407C102.008 21.6661 80.8242 0.611389 54.8067 0.611389C41.4434 0.589904 28.6172 6.28326 19.6367 16.1876C18.8848 17.0255 18.9492 18.336 19.7871 19.088C20.625 19.8614 21.9356 19.7969 22.6875 18.9376C30.8945 9.87115 42.6035 4.69342 54.8067 4.69342C77.752 4.69342 96.5723 22.6329 98.0332 45.213C96.2285 44.461 94.2949 43.9883 92.2539 43.8165C92.1465 42.0333 91.9102 40.2501 91.5449 38.5098C91.3086 37.3926 90.2129 36.7051 89.0957 36.9415C87.9785 37.1778 87.2696 38.2735 87.5274 39.3907C87.8281 40.8301 88.0215 42.2911 88.1289 43.7735H86.8828C85.7442 43.7735 84.8203 44.6973 84.8203 45.836V80.4258C84.8203 81.5645 85.7442 82.4883 86.8828 82.4883H90.6426C93.0274 82.4883 95.3477 82.0372 97.5176 81.2208V86.3126C97.5176 89.6212 96.2285 92.7149 93.8867 95.0567C91.5449 97.3985 88.4512 98.6876 85.1426 98.6876H77.9024C77.8164 98.6876 77.752 98.709 77.666 98.709V95.3575C77.666 94.2188 76.7422 93.295 75.6035 93.295H65.3985C62.3692 93.295 59.9199 95.7442 59.9199 98.7735V101.975C59.9199 105.004 62.3692 107.453 65.3985 107.453H75.6035C76.7422 107.453 77.666 106.529 77.666 105.391V102.77C77.752 102.77 77.8164 102.791 77.9024 102.791H85.1426C89.5469 102.791 93.6719 101.072 96.7871 97.9571C99.9024 94.8419 101.621 90.7169 101.621 86.3126V79.0508C102.48 78.4708 103.297 77.8262 104.049 77.0958C104.865 76.3008 104.887 75.0118 104.113 74.1954C103.318 73.379 102.029 73.3575 101.213 74.1309C100.375 74.9473 99.4297 75.6348 98.4629 76.2149C98.4629 76.2149 98.4414 76.2149 98.4414 76.2364C96.0996 77.6329 93.4356 78.3848 90.6641 78.3848H88.9453V47.8555H90.6641C99.0645 47.8555 105.897 54.6876 105.897 63.0879C105.897 65.043 105.531 66.9337 104.822 68.7169C104.393 69.7696 104.908 70.9727 105.961 71.3809C107.014 71.7891 108.217 71.295 108.625 70.2422C109.527 67.9649 110 65.5587 110 63.0879C110 56.7715 106.928 51.1641 102.223 47.6407ZM73.584 103.285H65.4199C64.668 103.285 64.0449 102.662 64.0449 101.91V98.709C64.0449 97.9571 64.668 97.334 65.4199 97.334H73.584V103.285Z" fill="#1D4283"/>
</svg>

<svg width="110" height="108" fill="none" xmlns="http://www.w3.org/2000/svg"><path d="M85.035 32.258a2.044 2.044 0 0 0 2.75.923 2.044 2.044 0 0 0 .924-2.75C82.564 17.992 69.352 9.936 55.021 9.936c-19.851 0-36.136 15.018-37.21 33.881-2.213.194-4.34.73-6.274 1.612a42.583 42.583 0 0 1 3.76-15.254c.473-1.032 0-2.256-1.031-2.729-1.032-.472-2.256 0-2.729 1.032a47.176 47.176 0 0 0-4.19 19.507C2.923 51.53.065 56.986.065 63.088c0 10.678 8.68 19.357 19.358 19.357h3.76a2.063 2.063 0 0 0 2.062-2.062v-6.875a2.063 2.063 0 0 0-4.125 0v4.812H19.4c-8.4 0-15.232-6.832-15.232-15.232 0-8.4 6.832-15.233 15.232-15.233h1.72v17.446a2.063 2.063 0 0 0 4.124 0V45.793a2.063 2.063 0 0 0-2.062-2.063h-1.246C23.053 27.166 37.447 14.04 55.02 14.04c12.784.021 24.557 7.154 30.014 18.219z" fill="#1D4283"/><path d="M102.223 47.64C102.008 21.667 80.824.612 54.807.612 41.443.59 28.617 6.283 19.637 16.188a2.065 2.065 0 0 0 .15 2.9 2.026 2.026 0 0 0 2.9-.15 43.39 43.39 0 0 1 32.12-14.245c22.945 0 41.765 17.94 43.226 40.52a19.135 19.135 0 0 0-5.78-1.397 36.613 36.613 0 0 0-.708-5.306c-.236-1.117-1.332-1.805-2.45-1.569a2.033 2.033 0 0 0-1.568 2.45c.301 1.44.495 2.9.602 4.383h-1.246a2.063 2.063 0 0 0-2.063 2.062v34.59c0 1.138.924 2.062 2.063 2.062h3.76c2.384 0 4.705-.45 6.875-1.267v5.092a12.27 12.27 0 0 1-3.631 8.744 12.27 12.27 0 0 1-8.744 3.63h-7.24c-.087 0-.151.022-.237.022v-3.352a2.063 2.063 0 0 0-2.063-2.062H65.4a5.474 5.474 0 0 0-5.48 5.478v3.202a5.474 5.474 0 0 0 5.48 5.478h10.204a2.063 2.063 0 0 0 2.063-2.062v-2.621c.086 0 .15.021.236.021h7.24c4.405 0 8.53-1.719 11.645-4.834 3.115-3.115 4.834-7.24 4.834-11.644V79.05a17.614 17.614 0 0 0 2.428-1.955 2.062 2.062 0 0 0 .064-2.9 2.062 2.062 0 0 0-2.9-.065c-.838.816-1.783 1.504-2.75 2.084 0 0-.022 0-.022.021a15.132 15.132 0 0 1-7.777 2.149h-1.719v-30.53h1.72c8.4 0 15.232 6.833 15.232 15.233a15.16 15.16 0 0 1-1.075 5.629 2.034 2.034 0 0 0 1.139 2.664c1.053.408 2.256-.086 2.664-1.139A19.355 19.355 0 0 0 110 63.088c0-6.316-3.072-11.924-7.777-15.447zm-28.639 55.645H65.42a1.385 1.385 0 0 1-1.375-1.375v-3.201c0-.752.623-1.375 1.375-1.375h8.164v5.951z" fill="#1D4283"/></svg>
